app/dist/common/images/fras-le-on-n1.svg

<svg fill="none" height="18" width="18" xmlns="http://www.w3.org/2000/svg"><path d="m0 0h18v18h-18z" fill="#f0f3fa"/><path d="m5 12v1.429l2.759-1.429zm3.629 0-3.629 2h1.613l3.628-2h-1.611zm2.758 0-3.627 2h1.61l3.63-2h-1.614zm-.87 2h2.483v-1.286z" fill="#e3000f"/><path d="m7 4h5v1h-3v2h3v1h-3v3h-2z" fill="#123c8a"/></svg>

<!-- by TradingView --><svg width="18" height="18" fill="none" xmlns="http://www.w3.org/2000/svg"><path fill="#F0F3FA" d="M0 0h18v18H0z"/><path d="M5 12v1.429L7.759 12H5ZM8.629 12 5 14h1.613l3.628-2H8.63ZM11.387 12 7.76 14H9.37l3.63-2h-1.614ZM10.517 14H13v-1.286L10.517 14Z" fill="#E3000F"/><path d="M7 4h5v1H9v2h3v1H9v3H7V4Z" fill="#123C8A"/></svg>
